X:1
T:Title
%%score { ( 1 3 ) | 2 }
L:1/8
M:4/4
K:G
V:1 treble nm="Grand Piano"
V:3 treble 
V:2 treble 
V:1
 z4 z2[Q:1/4=94] G2 | B2 B2 G2 [FA]2 | B2 d2 B4 | [FA][FA][FA][FA] (3[FA][FA][FA] [DG][DFA] | %4
 B6 G2 | B2 B2 G2 [FA]2 | B2 d2 B4 | [FA][FA][FA][FA] (3[FA][FA][FA] [GB][CFA] |[M:3/4] [G,B,G]6 | %9
[M:1/4] z A |[M:4/4] [GB]-[DG-B-][DG-B-][DG-B-] [DGB]ABd | (3[DG-B-][DG-B-][DG-B-] [GB]4 GG | %12
 [EG]-[CE-G-][CE-G-][CE-G-] [G,EG]AGE | (3[G,B,-D-][G,B,-D-][G,B,-D-] [B,D]4[K:treble] GA | %14
 [GB]-[DG-B-][DG-B-][DG-B-] [DGB]ABd | (3[DG-B-][DG-B-][DG-B-] [GB]4 BB | %16
 [FA][FA][FA][FA] (3[FA][FA][FA] [GB][FA] |[M:3/4] [B,G]6 |] %18
V:2
 z4 z2 [G,B,D]2 | [G,DG]2 [G,DG]2[K:bass] [G,B,D]2 [D,D]2 | [G,DG]2 [G,B,G]2 [G,DG]4 | %3
 [D,D][D,D][D,D][D,D] (3[D,D][D,D][D,D] B,,D, | [G,DG]6 [G,B,D]2 | %5
 [G,DG]2 [G,DG]2 [G,B,D]2 [D,D]2 | [G,DG]2 [G,B,G]2 [G,DG]4 | %7
 [D,D][D,D][D,D][D,D] (3[D,D][D,D][D,D] [D,D]D, |[M:3/4] G,,6 |[M:1/4][K:treble] GF | %10
[M:4/4] G,G,G,G, G,FGB | (3G,G,G, G,G, G,2 DD | C,C,C,C, C,EEC | %13
 (3G,,G,,G,, G,,G,, G,,2 z[K:treble] F | G,G,G,G, G,FGB | %15
 (3G,G,G, G,G, G,2[K:treble] [G,DG][G,DG] | [D,D][D,D][D,D][D,D] (3[D,D][D,D][D,D] [D,D][D,C] | %17
[M:3/4] [G,,G,]6 |] %18
V:3
 x8 | x8 | x8 | x8 | x8 | x8 | x8 | x8 |[M:3/4] x6 |[M:1/4] x2 |[M:4/4] .D2 z2 z4 | z2 DD D2 z2 | %12
 .C2 z2 z4 | z2 G,G, G,2[K:treble] z2 | .D2 z2 z4 | z2 DD D2 z2 | x8 |[M:3/4] x6 |] %18

